!!! OTL: Berkowitz271
!!! Chapter: 1
!!! Section: II
!!! Page: 64
!!! Mode: 
!!! Encoder: DJB
**kern
*staff1
*I"Piano
=1-
*clefC3
*k[f#c#]
*D:
*M6/8
8F#/L
8G/
8A/J
4d\
8c#\
=2
8B/L
8G/
8E/J
8r
8G/L
8B/J
=3
8.A/L
16F#/K
8D/J
8D/L
8C#/
8D/J
=4
4F#/
16G/LL
16F#/JJ
4E/
16C#/LL
16D/JJ
=5
8F#/L
8G/
8A/J
4d\
8c#\
=6
8B-/L
8G/
8E-/J
8r
8G/L
8B-/J
=7
!!linebreak:original
8.A/L
16G/K
8F#/J
8E/L
8.F#/
16E/Jk
=8
8D/L
8F#/
8A/J
8d\
4r
==
*-
